X:1
T:PASSE-PIED DE PLAINTEL
C:traditionnel breton
I:Skol al louarn
Q:1/4=130
M:4/4
L:1/8
K:C
|: Gd dB ce dd/B/ |1 ce dc BA G2 :| 2ce dc BA GA/B/ |
|: cB A2 d2 GA/B/ |1 cB AB A2 GA/B/ :|2 cB AB A2 G2 :|
|: BG AB cA BB/B/ |1 BA GA/B/ cA B2 :|2 BA GA/B/ cA B3/2B/ :|
|: GA BA/B/ cB AA/A/ |1 AG Ad/d/ dA B2 :|2 AG A2 d2 G2 ||
